assets/images/icons/phone-after-02.svg

<svg width="16" height="17" viewBox="0 0 16 17" fill="none" xmlns="http://www.w3.org/2000/svg">
<g id="fi_733585" clip-path="url(#clip0_306_12518)">
<path id="Vector" d="M8.002 0.5H7.998C3.587 0.5 0 4.088 0 8.5C0 10.25 0.564 11.872 1.523 13.189L0.526 16.161L3.601 15.178C4.866 16.016 6.375 16.5 8.002 16.5C12.413 16.5 16 12.911 16 8.5C16 4.089 12.413 0.5 8.002 0.5Z" fill="#4CAF50"/>
<path id="Vector_2" d="M12.6566 11.7969C12.4636 12.3419 11.6976 12.7939 11.0866 12.9259C10.6686 13.0149 10.1226 13.0859 8.28456 12.3239C5.93356 11.3499 4.41956 8.96094 4.30156 8.80594C4.18856 8.65094 3.35156 7.54094 3.35156 6.39294C3.35156 5.24494 3.93456 4.68594 4.16956 4.44594C4.36256 4.24894 4.68156 4.15894 4.98756 4.15894C5.08656 4.15894 5.17556 4.16394 5.25556 4.16794C5.49056 4.17794 5.60856 4.19194 5.76356 4.56294C5.95656 5.02794 6.42656 6.17594 6.48256 6.29394C6.53956 6.41194 6.59656 6.57194 6.51656 6.72694C6.44156 6.88694 6.37556 6.95794 6.25756 7.09394C6.13956 7.22994 6.02756 7.33394 5.90956 7.47994C5.80156 7.60694 5.67956 7.74294 5.81556 7.97794C5.95156 8.20794 6.42156 8.97494 7.11356 9.59094C8.00656 10.3859 8.73056 10.6399 8.98956 10.7479C9.18256 10.8279 9.41256 10.8089 9.55356 10.6589C9.73256 10.4659 9.95356 10.1459 10.1786 9.83094C10.3386 9.60494 10.5406 9.57694 10.7526 9.65694C10.9686 9.73194 12.1116 10.2969 12.3466 10.4139C12.5816 10.5319 12.7366 10.5879 12.7936 10.6869C12.8496 10.7859 12.8496 11.2509 12.6566 11.7969Z" fill="#FAFAFA"/>
</g>
<defs>
<clipPath id="clip0_306_12518">
<rect width="16" height="16" fill="white" transform="translate(0 0.5)"/>
</clipPath>
</defs>
</svg>

<svg xmlns="http://www.w3.org/2000/svg" width="16" height="17" fill="none"><g clip-path="url(#a)"><path fill="#4CAF50" d="M8.002.5h-.004C3.587.5 0 4.088 0 8.5a7.94 7.94 0 0 0 1.523 4.689l-.997 2.972 3.075-.983A7.93 7.93 0 0 0 8.002 16.5c4.411 0 7.998-3.589 7.998-8s-3.587-8-7.998-8"/><path fill="#FAFAFA" d="M12.657 11.797c-.193.545-.96.997-1.57 1.129-.418.089-.964.16-2.802-.602C5.934 11.35 4.42 8.96 4.302 8.806c-.113-.155-.95-1.265-.95-2.413s.583-1.707.818-1.947c.193-.197.512-.287.818-.287q.148.001.268.009c.235.01.353.024.508.395.193.465.663 1.613.719 1.73.057.119.114.279.034.434-.075.16-.141.23-.26.367-.117.136-.23.24-.347.386-.108.127-.23.263-.094.498.136.23.606.997 1.298 1.613.893.795 1.617 1.049 1.876 1.157.193.08.423.06.564-.09.179-.192.4-.512.625-.827.16-.226.362-.254.574-.174.216.075 1.359.64 1.594.757.235.118.39.174.447.273s.056.564-.137 1.11"/></g><defs><clipPath id="a"><path fill="#fff" d="M0 .5h16v16H0z"/></clipPath></defs></svg>
